img/idea/2_white.svg

<svg width="59" height="58" viewBox="0 0 59 58" fill="none" xmlns="http://www.w3.org/2000/svg">
<path d="M23.0248 43.1516C23.0248 43.1516 25.7914 46.5033 23.3808 51.1585" stroke="white" stroke-width="3" stroke-miterlimit="10"/>
<path d="M36.6057 43.1516C36.6057 43.1516 33.8391 46.5033 36.2497 51.1585" stroke="white" stroke-width="3" stroke-miterlimit="10"/>
<path d="M53.606 2.18628H5.39403C3.34583 2.18628 1.68542 3.85363 1.68542 5.91042V39.4277C1.68542 41.4844 3.34583 43.1518 5.39403 43.1518H53.606C55.6542 43.1518 57.3146 41.4844 57.3146 39.4277V5.91042C57.3146 3.85363 55.6542 2.18628 53.606 2.18628Z" stroke="white" stroke-width="3" stroke-miterlimit="10"/>
<path d="M1.68542 35.7258H57.3146" stroke="white" stroke-width="2" stroke-miterlimit="10"/>
<path d="M18.0033 28.4414H23.3808V35.7035H16.149V30.3035C16.149 29.2756 16.9797 28.4414 18.0033 28.4414Z" stroke="white" stroke-width="2" stroke-miterlimit="10"/>
<path d="M25.2351 25.0896H30.6126V35.7034H23.3808V26.9517C23.3808 25.9238 24.2115 25.0896 25.2351 25.0896Z" stroke="white" stroke-width="2" stroke-miterlimit="10"/>
<path d="M32.4669 20.4346H37.8444V35.7035H30.6126V22.2966C30.6126 21.2688 31.4433 20.4346 32.4669 20.4346Z" stroke="white" stroke-width="2" stroke-miterlimit="10"/>
<path d="M39.6987 13.9172H43.2218C44.2454 13.9172 45.0761 14.7514 45.0761 15.7793V35.7034H37.8444V15.7793C37.8444 14.7514 38.6751 13.9172 39.6987 13.9172Z" stroke="white" stroke-width="2" stroke-miterlimit="10"/>
<path d="M39.3278 6.46899C30.4272 19.1311 14.4801 27.138 14.4801 27.138" stroke="white" stroke-width="2" stroke-miterlimit="10"/>
<path d="M33.8576 8.07775C34.3212 8.14478 39.5132 6.28271 39.5132 6.28271L38.4007 11.4965" stroke="white" stroke-width="2" stroke-miterlimit="10"/>
<path d="M42.6656 51.1587H16.3344C15.3103 51.1587 14.4801 51.9924 14.4801 53.0208V53.9518C14.4801 54.9802 15.3103 55.8139 16.3344 55.8139H42.6656C43.6897 55.8139 44.5199 54.9802 44.5199 53.9518V53.0208C44.5199 51.9924 43.6897 51.1587 42.6656 51.1587Z" stroke="white" stroke-width="3" stroke-miterlimit="10"/>
<path d="M5.76491 39.2415H9.67378" stroke="white" stroke-width="2" stroke-miterlimit="10"/>
<path d="M12.967 39.2415H16.8833" stroke="white" stroke-width="2" stroke-miterlimit="10"/>
</svg>

<svg width="59" height="58" fill="none" xmlns="http://www.w3.org/2000/svg"><path d="M23.025 43.152s2.766 3.351.356 8.006m13.225-8.006s-2.767 3.351-.356 8.006M53.606 2.186H5.394A3.716 3.716 0 0 0 1.685 5.91v33.518a3.716 3.716 0 0 0 3.709 3.724h48.212a3.716 3.716 0 0 0 3.709-3.724V5.91a3.716 3.716 0 0 0-3.709-3.724Z" stroke="#fff" stroke-width="3" stroke-miterlimit="10"/><path d="M1.685 35.726h55.63m-39.312-7.285h5.378v7.262h-7.232v-5.4c0-1.027.83-1.862 1.854-1.862Z" stroke="#fff" stroke-width="2" stroke-miterlimit="10"/><path d="M25.235 25.09h5.378v10.613H23.38v-8.751c0-1.028.83-1.862 1.854-1.862Zm7.232-4.655h5.377v15.268h-7.231V22.297c0-1.028.83-1.862 1.854-1.862Zm7.232-6.518h3.523c1.023 0 1.854.834 1.854 1.862v19.924h-7.232V15.78c0-1.028.831-1.862 1.855-1.862Zm-.371-7.448c-8.9 12.662-24.848 20.669-24.848 20.669" stroke="#fff" stroke-width="2" stroke-miterlimit="10"/><path d="M33.858 8.078c.463.067 5.655-1.795 5.655-1.795l-1.112 5.213" stroke="#fff" stroke-width="2" stroke-miterlimit="10"/><path d="M42.666 51.159H16.334a1.858 1.858 0 0 0-1.854 1.862v.93c0 1.03.83 1.863 1.854 1.863h26.332a1.858 1.858 0 0 0 1.854-1.862v-.931c0-1.029-.83-1.862-1.854-1.862Z" stroke="#fff" stroke-width="3" stroke-miterlimit="10"/><path d="M5.765 39.242h3.909m3.293 0h3.916" stroke="#fff" stroke-width="2" stroke-miterlimit="10"/></svg>
